X:486
T:O Nanny Wilt Thou Fly With Me. RH.486
R:march
S:Rev.R.Harrison’s MS,c1815,Cumbria
O:England
A:Temple Sowerby,Cumbria
Z:vmp.Simon Wilson. Review PJH, 2008.
M:C
L:1/8
Q:2/4=50
K:G
B>c|d>fed d2B>c|d>edB A2dF|\
G2G2 G3B|Aedc B2B>c|\
d>efe d2 B>c|d>edB A2dF|\
G2G2G3B|AedcB3d||!
g>ab>b afzd|e>fgg bdzd|\
b2(a/g/f/e/)a2bg|f2e2d2zd|\
(e>fgg) fdzB|(c>dee) dBzG|\
c2BA B (g2d)|cBAG d4||!
e>fgg fdzB|c>dee dBzG|\
c2(B/A/) Bg2(f/e/)|(e/d/c/B/) d/c/B/A/G2zd|!
d/^c/d/e/ d=c Bgzd|d/^c/d/e/ d=c Bgzd|\
d/e/f/g/ a/b/c’/d’/ b/g/ze/c/z|B2A2G2|]

